X: 23112
T: Laurel Tree, The
R: reel
M: 4/4
K: Adorian
eA~A2 egdc|BG~G2 B"*"cdg|eA~A2 e"*"gdc|BAGB A2 (3Bcd|
eA~A2 e"*"gdc|BAGA Bcd"*"g|~e2ef g"*"baf|gedB A2 (3Bcd:|
e"*"aag egdc|BG~G2 Bcd"*"g|eaag egdc|BAGB A2 (3Bcd|
e"*"aag egdc|BG~G2 Bcdg|~e2ef g"*"baf|gedB A2 (3Bcd|
e"*"aag egdc|BG~G2 Bcdg|eaag ~a2ga|bagb a2ag|
eaag egdc|BG~G2 Bcdg|edef g"*"baf|gedB A2 (3Bcd||

